X:652
T:Miss McPherson Grant's Jig - of Ballindalloch
B:Marshall's 1st Coll. (1822)
Z:Nigel Gatherer
L:1/8
M:6/8
K:A
E | E2A A2F  | GAB Bcd | c2E AGA  | B3  E3  |
    E2e e2c  | dcd Bcd | cde fed  | cBA GFE |
    E2A A2F  | GAB Bcd | c2E AGA  | B3  E3  |
    E2e e2c  | dcd Bcd | cBA EFG  | A3  A2 ||
E | C2E A2=G | FEF D2F | d2c BcA  | G3  E2E |
    FGA Bcd  | cde fga | gfe Bc^d | e3  e2z |
    f2D fed  | e2c ecA | FGA BcA  | G3  E3  |
    F2d E2c  | D2B C2e | cBA EFG  | A3 A,2 |]
<end>
<start>
